assets/amenitiesIcons/BathroomPhone.svg

<svg xmlns="http://www.w3.org/2000/svg" width="800" height="800" fill="none" viewBox="0 0 960 960"><path fill="#000" d="M239.972 640.934c2.471-123.751-7.651-247.403.561-371.038 3.513-113.486 42.214-144.705 153.504-149.275 231.609-7.127 329.669-27.988 316.707 248.804-1.064 81.891-.118 163.698 4.902 245.452 2.025 69.874 7.167 141.48-10.91 209.828-15.928 68.181-88.539 72.693-146.602 70.979-55.963-.76-111.925-2.338-167.861-4.338-181.127 2.672-148.34-117.259-150.031-250.413zm46.728-9.557 1.685.006c-.89 33.633-2.269 67.264-2.479 100.901.756 40.022-4.068 95.435 45.678 106.196 92.055 13.896 186.542 9.758 279.518 8.977 67.318.148 57.539-87.614 60.839-134.707-.747-81.82-5.547-163.602-8.275-245.382-4.769-81.199 1.036-163.833-13.146-244.116-13.706-76.963-113.059-58.062-171.244-63.022-51.127-.487-103.368 1.553-152.971 15.396-20.951 5.44-30.447 28.764-33.576 48.333-15.84 135.391-3.13 271.527-6.029 407.418M761.27 363.184c-27.386 1.937-34.907-27.004-13.718-38.301 45.47-15.867 93.514-24.84 140.154-37.017 29.904-8.212 45.62 31.518 15.804 43.244-8.445 2.76-17.311 4.261-26.021 6.179-37.382 8.351-79.783 17.061-116.219 25.895M189.745 477.254c-.13 9.357-5.833 15.285-13.162 19.478-34.431 19.694-71.108 35.189-107.39 51.06-26.148 8.844-40.613-24.029-16.1-37.162 31.41-14.714 63.367-28.417 95.03-42.626 15.273-8.073 39.937-16.05 41.622 9.25M220.327 165.426c-4.575-2.141-9.903-3.403-13.601-6.569-22.821-21.838-51.098-39.661-69.83-65.06-9.435-18.038 12.063-37.865 29.413-27.519 21.709 17.018 40.383 37.997 60.715 56.696 17.437 12.841 18.937 39.49-6.697 42.452M829.204 483.429c1.037 17.744-20.298 28.788-34.028 18.82-15.953-12.245-30.451-26.596-45.148-40.334-28.046-25.008 4.129-57.336 30.119-30.367 13.038 10.766 25.855 21.799 38.83 32.642 6.258 5.231 10.389 11.442 10.227 19.239M179.007 356.156c-18.678-3.98-38.032-12.496-56.366-18.575-23.293-7.137-22.157-40.306 3.853-40.675 3.234.08 6.662.547 9.632 1.751 18.714 8.483 39.088 14.277 56.575 25.057 13.994 11.44 5.945 33.714-13.694 32.442M752.135 193.458c-17.837-.871-23.74-20.702-13.562-33.369 11.574-13.263 20.493-38.46 41.65-35.395 13.25 2.129 21.245 17.939 13.249 29.473-8.621 12.435-19.535 23.346-30.033 34.366-2.612 2.743-7.475 3.341-11.304 4.925"/><path fill="#fff" d="M286.703 631.38c2.898-135.891-9.811-272.028 6.029-407.418 3.115-19.593 12.638-42.865 33.575-48.332 49.601-13.848 101.846-15.879 152.971-15.395 58.181 4.814 157.551-13.85 171.242 63.019 14.188 80.284 8.377 162.92 13.152 244.118 2.726 81.78 7.525 163.562 8.27 245.38-3.17 47.246 6.383 134.73-60.833 134.708-92.976.789-187.469 4.916-279.524-8.971-49.728-10.821-44.924-66.148-45.674-106.202.209-33.636 1.588-67.267 2.478-100.9zm148.72-432.464-.118 1.046c-162.4-3.313-114.6 51.091-119.864 176.639.217 88.064 1.542 176.124 2.394 264.182-1.096 26.853-1.659 53.542 1.338 80.3.435 16.037 6.63 25.61 22.354 28.79 12.818 2.592 26.08 4.243 39.134 4.168 75.64-2.333 152.139.744 226.62-15.113 48.34-9.292 46.168-68.324 44.063-107.068-5.02-50.812-5.657-101.944-7.044-152.954-4.847-82.537 3.709-166.82-11.726-248.243-3.167-13.284-12.487-21.258-26.798-22.101-56.785-3.218-113.569-6.428-170.353-9.646m16.496 596.304c7.335 59.908 83.291 34.604 80.948-17.124-.022-3.564-2.11-8.273-4.841-10.44-25.747-27.65-76.022-9.725-76.107 27.564"/><path fill="#000" d="M435.423 198.914c56.784 3.217 113.568 6.428 170.352 9.644 14.311.843 23.631 8.818 26.793 22.102 15.444 81.418 6.881 165.708 11.736 248.242 1.382 51.01 2.019 102.143 7.037 152.954 2.163 38.787 4.241 97.75-44.06 107.066-74.48 15.864-150.983 12.778-226.621 15.118-13.053.073-26.316-1.579-39.134-4.17-15.724-3.179-21.919-12.753-22.356-28.79-2.99-26.745-2.436-53.458-1.335-80.3-.854-88.059-2.179-176.118-2.392-264.184 5.321-125.634-42.659-179.87 119.861-176.637zM350.944 355.22c1.455 11.821 3.122 27.911 5.508 43.893 3.149 24.951 37.661 22.559 36.452-3.501-.099-35.029 2.382-69.937 5.112-104.841.946-12.918-6.927-24.025-18.223-25.369-13.462-1.877-23.68 8.559-24.782 22.809-1.277 20.861-2.537 41.723-4.067 67.009"/><path fill="#000" d="M451.914 795.213c.096-37.292 50.357-55.215 76.106-27.561 2.731 2.165 4.82 6.873 4.844 10.438 2.337 51.741-73.629 77.02-80.95 17.123m34.685 7.371c8.414-.073 16.02-7.423 15.695-13.475-.164-3.053-.041-7.242-5.633-6.888-13.373 1.735-21.855 12.097-10.062 20.363"/><path fill="#fff" d="M350.945 355.217c1.531-25.286 2.79-46.148 4.067-67.009 1.107-14.236 11.317-24.697 24.782-22.808 11.296 1.343 19.169 12.451 18.222 25.368-2.729 34.904-5.21 69.812-5.11 104.842 1.206 26.033-33.306 28.478-36.454 3.499-2.386-15.982-4.052-32.072-5.507-43.892M486.605 802.588c-11.797-8.269-3.304-18.631 10.063-20.364 5.591-.353 5.469 3.836 5.633 6.889.323 6.052-7.282 13.402-15.696 13.475"/></svg>

<?xml version="1.0" encoding="utf-8"?><!-- Uploaded to: SVG Repo, www.svgrepo.com, Generator: SVG Repo Mixer Tools -->
<svg width="800px" height="800px" viewBox="0 0 960 960" fill="none" xmlns="http://www.w3.org/2000/svg">
<path d="M239.972 640.934C242.443 517.183 232.321 393.531 240.533 269.896C244.046 156.41 282.747 125.191 394.037 120.621C625.646 113.494 723.706 92.6331 710.744 369.425C709.68 451.316 710.626 533.123 715.646 614.877C717.671 684.751 722.813 756.357 704.736 824.705C688.808 892.886 616.197 897.398 558.134 895.684C502.171 894.924 446.209 893.346 390.273 891.346C209.146 894.018 241.933 774.087 240.242 640.933C240.152 640.933 240.062 640.933 239.972 640.934ZM286.7 631.377C287.262 631.379 287.823 631.381 288.385 631.383C287.495 665.016 286.116 698.647 285.906 732.284C286.662 772.306 281.838 827.719 331.584 838.48C423.639 852.376 518.126 848.238 611.102 847.457C678.42 847.605 668.641 759.843 671.941 712.75C671.194 630.93 666.394 549.148 663.666 467.368C658.897 386.169 664.702 303.535 650.52 223.252C636.814 146.289 537.461 165.19 479.276 160.23C428.149 159.743 375.908 161.783 326.305 175.626C305.354 181.066 295.858 204.39 292.729 223.959C276.889 359.35 289.599 495.486 286.7 631.377Z" fill="#000000"/>
<path d="M761.27 363.184C733.884 365.121 726.363 336.18 747.552 324.883C793.022 309.016 841.066 300.043 887.706 287.866C917.61 279.654 933.326 319.384 903.51 331.11C895.065 333.87 886.199 335.371 877.489 337.289C840.107 345.64 797.706 354.35 761.27 363.184Z" fill="#000000"/>
<path d="M189.745 477.254C189.615 486.611 183.912 492.539 176.583 496.732C142.152 516.426 105.475 531.921 69.1929 547.792C43.0449 556.636 28.5799 523.763 53.0929 510.63C84.5029 495.916 116.46 482.213 148.123 468.004C163.396 459.931 188.06 451.954 189.745 477.254Z" fill="#000000"/>
<path d="M220.327 165.426C215.752 163.285 210.424 162.023 206.726 158.857C183.905 137.019 155.628 119.196 136.896 93.7964C127.461 75.7594 148.959 55.9324 166.309 66.2784C188.018 83.2964 206.692 104.275 227.024 122.974C244.461 135.815 245.961 162.464 220.327 165.426Z" fill="#000000"/>
<path d="M829.204 483.429C830.241 501.173 808.906 512.217 795.176 502.249C779.223 490.004 764.725 475.653 750.028 461.915C721.982 436.907 754.157 404.579 780.147 431.548C793.185 442.314 806.002 453.347 818.977 464.19C825.235 469.421 829.366 475.632 829.204 483.429Z" fill="#000000"/>
<path d="M179.007 356.156C160.329 352.176 140.975 343.66 122.641 337.581C99.3477 330.444 100.484 297.275 126.494 296.906C129.728 296.986 133.156 297.453 136.126 298.657C154.84 307.14 175.214 312.934 192.701 323.714C206.695 335.154 198.646 357.428 179.007 356.156Z" fill="#000000"/>
<path d="M752.135 193.458C734.298 192.587 728.395 172.756 738.573 160.089C750.147 146.826 759.066 121.629 780.223 124.694C793.473 126.823 801.468 142.633 793.472 154.167C784.851 166.602 773.937 177.513 763.439 188.533C760.827 191.276 755.964 191.874 752.135 193.458Z" fill="#000000"/>
<path d="M286.703 631.38C289.601 495.489 276.892 359.352 292.732 223.962C295.847 204.369 305.37 181.097 326.307 175.63C375.908 161.782 428.153 159.751 479.278 160.235C537.459 165.049 636.829 146.385 650.52 223.254C664.708 303.538 658.897 386.174 663.672 467.372C666.398 549.152 671.197 630.934 671.942 712.752C668.772 759.998 678.325 847.482 611.109 847.46C518.133 848.249 423.64 852.376 331.585 838.489C281.857 827.668 286.661 772.341 285.911 732.287C286.12 698.651 287.499 665.02 288.389 631.387C287.827 631.384 287.265 631.382 286.703 631.38ZM435.423 198.916C435.384 199.265 435.345 199.613 435.305 199.962C272.905 196.649 320.705 251.053 315.441 376.601C315.658 464.665 316.983 552.725 317.835 640.783C316.739 667.636 316.176 694.325 319.173 721.083C319.608 737.12 325.803 746.693 341.527 749.873C354.345 752.465 367.607 754.116 380.661 754.041C456.301 751.708 532.8 754.785 607.281 738.928C655.621 729.636 653.449 670.604 651.344 631.86C646.324 581.048 645.687 529.916 644.3 478.906C639.453 396.369 648.009 312.086 632.574 230.663C629.407 217.379 620.087 209.405 605.776 208.562C548.991 205.344 492.207 202.134 435.423 198.916ZM451.919 795.22C459.254 855.128 535.21 829.824 532.867 778.096C532.845 774.532 530.757 769.823 528.026 767.656C502.279 740.006 452.004 757.931 451.919 795.22Z" fill="white"/>
<path d="M435.423 198.914C492.207 202.131 548.991 205.342 605.775 208.558C620.086 209.401 629.406 217.376 632.568 230.66C648.012 312.078 639.449 396.368 644.304 478.902C645.686 529.912 646.323 581.045 651.341 631.856C653.504 670.643 655.582 729.606 607.281 738.922C532.801 754.786 456.298 751.7 380.66 754.04C367.607 754.113 354.344 752.461 341.526 749.87C325.802 746.691 319.607 737.117 319.17 721.08C316.18 694.335 316.734 667.622 317.835 640.78C316.981 552.721 315.656 464.662 315.443 376.596C320.764 250.962 272.784 196.726 435.304 199.959C435.344 199.611 435.384 199.263 435.423 198.914ZM350.944 355.22C352.399 367.041 354.066 383.131 356.452 399.113C359.601 424.064 394.113 421.672 392.904 395.612C392.805 360.583 395.286 325.675 398.016 290.771C398.962 277.853 391.089 266.746 379.793 265.402C366.331 263.525 356.113 273.961 355.011 288.211C353.734 309.072 352.474 329.934 350.944 355.22Z" fill="#000000"/>
<path d="M451.914 795.213C452.01 757.921 502.271 739.998 528.02 767.652C530.751 769.817 532.84 774.525 532.864 778.09C535.201 829.831 459.235 855.11 451.914 795.213ZM486.599 802.584C495.013 802.511 502.619 795.161 502.294 789.109C502.13 786.056 502.253 781.867 496.661 782.221C483.288 783.956 474.806 794.318 486.599 802.584Z" fill="#000000"/>
<path d="M350.945 355.217C352.476 329.931 353.735 309.069 355.012 288.208C356.119 273.972 366.329 263.511 379.794 265.4C391.09 266.743 398.963 277.851 398.016 290.768C395.287 325.672 392.806 360.58 392.906 395.61C394.112 421.643 359.6 424.088 356.452 399.109C354.066 383.127 352.4 367.037 350.945 355.217Z" fill="white"/>
<path d="M486.605 802.588C474.808 794.319 483.301 783.957 496.668 782.224C502.259 781.871 502.137 786.06 502.301 789.113C502.624 795.165 495.019 802.515 486.605 802.588Z" fill="white"/>
</svg>
